X: 24983
T: Maid Of Mount Kisco, The
R: reel
M: 4/4
K: Adorian
"A" EAAA "A" BGAG|"A" EAAA "A" BGAG|"G" EGGG "G" AGGG|"G" EGGG "G" EGDG|
"A" EAAA "A" BzAG|"A" EAAA "A" BGAB|"G" eggg "A" aged|"G" BAGB "A" AAAG:|
"A" AAAB "A" dBAB|"G" GGBG "G" DGBG|"A" AAAB "A" GABd|"E" effg "G" edBG|
"A" AAAB "A" dzAB|"G" GGBG "G" DGBG|"A" AAAB "A" GABd|"E" effg "D" d3 z2||
"A" eaaa "B" bgaf|"D" fedB "G" GGAB|"A" eaaa "B" bgab|"G" gede "G" ggge|
"A" a3e "G" ggge|"E" dedB "G" GGAB|"A" eAAA "G" Bege|"G" dBAG "A" AAA G||

